learning-site/svg (56).svg

<svg xmlns="http://www.w3.org/2000/svg" xmlns:xlink="http://www.w3.org/1999/xlink" viewBox="0 0 100 118" version="1.1"><!-- Generator: Sketch 51.3 (57544) - http://www.bohemiancoding.com/sketch --><title>Create a dashboard with Power BI/create-a-dashboard-with-power-bi</title><desc>Created with Sketch.</desc><defs><filter x="-1.6%" y="-1.9%" width="103.1%" height="107.4%" filterUnits="objectBoundingBox" id="filter-1"><feOffset dx="0" dy="2" in="SourceAlpha" result="shadowOffsetOuter1"></feOffset><feColorMatrix values="0 0 0 0 0   0 0 0 0 0   0 0 0 0 0  0 0 0 0.0968919837 0" type="matrix" in="shadowOffsetOuter1" result="shadowMatrixOuter1"></feColorMatrix><feMerge><feMergeNode in="shadowMatrixOuter1"></feMergeNode><feMergeNode in="SourceGraphic"></feMergeNode></feMerge></filter></defs><g id="Badges-FINAL" stroke="none" stroke-width="1" fill="none" fill-rule="evenodd"><g id="Create-a-dashboard-with-Power-BI" transform="translate(-577.000000, -119.000000)"><g id="Create-a-dashboard-with-Power-BI/create-a-dashboard-with-power-bi" transform="translate(577.000000, 119.000000)"><path d="M44.7425,3.49663266 C46.3745,2.49887755 48.1865,2 50,2 C51.8135,2 53.627,2.49887755 55.256,3.49663266 L92.591,26.3316189 C95.933,28.3773408 98,32.2031485 98,36.3529027 L98,81.6470973 C98,85.7952317 95.933,89.6242789 92.591,91.6683811 L55.256,114.504987 C53.627,115.501122 51.8135,116 50,116 C48.1865,116 46.3745,115.501122 44.7425,114.504987 L7.409,91.6683811 C4.0655,89.6242789 2,85.7952317 2,81.6470973 L2,36.3529027 C2,32.2031485 4.0655,28.3773408 7.409,26.3316189 L44.7425,3.49663266 Z" id="Trophy-1" fill="#7D7D7D"></path><g id="Group-9" filter="url(#filter-1)" transform="translate(18.000000, 32.000000)"><path d="M4,54 C1.8,54 0,52.2 0,50 L0,4 C0,1.8 1.8,0 4,0 L60,0 C62.2,0 64,1.8 64,4 L64,50 C64,52.2 62.2,54 60,54 L4,54" id="Fill-1485" fill="#30404D"></path><path d="M5,51 C3.9,51 3,50.1 3,49 L3,11 C3,9.9 3.9,9 5,9 L59,9 C60.1,9 61,9.9 61,11 L61,49 C61,50.1 60.1,51 59,51 L5,51" id="Fill-1486" fill="#F7CB64"></path><path d="M4,4.5 C4,3.671 4.672,3 5.5,3 C6.329,3 7,3.671 7,4.5 C7,5.328 6.329,6 5.5,6 C4.672,6 4,5.328 4,4.5" id="Fill-1487" fill="#DF5142"></path><path d="M10,4.5 C10,3.671 10.672,3 11.5,3 C12.329,3 13,3.671 13,4.5 C13,5.328 12.329,6 11.5,6 C10.672,6 10,5.328 10,4.5" id="Fill-1488" fill="#EFB252"></path><path d="M16,4.5 C16,3.671 16.672,3 17.5,3 C18.329,3 19,3.671 19,4.5 C19,5.328 18.329,6 17.5,6 C16.672,6 16,5.328 16,4.5" id="Fill-1489" fill="#7CB65A"></path><path d="M59.5,6 L25.5,6 C24.672,6 24,5.328 24,4.5 C24,3.672 24.672,3 25.5,3 L59.5,3 C60.328,3 61,3.672 61,4.5 C61,5.328 60.328,6 59.5,6" id="Fill-1490" fill="#697D85"></path><g id="Group-2" transform="translate(20.000000, 17.000000)" fill="#FFFFFF"><path d="M11.1379,25.0575 C10.9539,24.9545 10.7449,24.9745 10.5489,24.9485 C9.3529,24.7895 8.2239,24.4235 7.1429,23.8925 C6.3549,23.5055 5.6169,23.0405 4.9419,22.4845 C4.1809,21.8565 3.5169,21.1345 2.9529,20.3225 C2.1889,19.2205 1.6199,18.0235 1.2759,16.7285 C0.9329,15.4365 0.8409,14.1205 0.9689,12.7875 C1.1459,10.9535 1.7569,9.2735 2.7659,7.7385 C3.4669,6.6705 4.3469,5.7685 5.3679,5.0005 C6.0639,4.4785 7.0769,4.5305 7.6889,5.0555 C8.5279,5.7785 8.5579,7.1415 7.7099,7.8615 C7.1849,8.3065 6.6579,8.7465 6.2339,9.2925 C5.1409,10.6995 4.5969,12.2845 4.6369,14.0735 C4.6629,15.2755 4.9709,16.3965 5.5369,17.4465 C6.0699,18.4315 6.7869,19.2625 7.7009,19.9155 C8.6179,20.5715 9.6299,21.0155 10.7389,21.2175 C12.1729,21.4795 13.5709,21.3275 14.9129,20.7635 C15.9449,20.3305 16.8469,19.7065 17.5939,18.8635 C18.6569,17.6615 19.2919,16.2655 19.4589,14.6755 C19.6109,13.2245 19.3659,11.8335 18.6929,10.5255 C18.1499,9.4695 17.3629,8.6355 16.4559,7.8855 C15.5119,7.1045 15.5819,5.6735 16.5749,4.9535 C17.1539,4.5325 18.0819,4.4875 18.7729,5.0095 C20.0739,5.9935 21.1219,7.1885 21.8919,8.6285 C22.6769,10.0975 23.1109,11.6575 23.1959,13.3235 C23.2999,15.3915 22.8579,17.3285 21.8869,19.1525 C21.2719,20.3085 20.4859,21.3295 19.5099,22.2035 C18.6759,22.9515 17.7419,23.5415 16.7299,24.0175 C15.5539,24.5695 14.3189,24.8945 13.0279,25.0155 C12.9889,25.0195 12.9329,24.9955 12.9139,25.0575 L11.1379,25.0575 Z" id="Fill-4301"></path><path d="M13.924,7.411 C13.924,8.897 13.918,10.384 13.927,11.869 C13.931,12.558 13.69,13.114 13.143,13.544 C12.68,13.908 11.82,14.008 11.298,13.73 C10.573,13.347 10.204,12.751 10.205,11.925 C10.207,8.901 10.216,5.878 10.201,2.854 C10.195,1.573 11.316,0.734 12.345,0.911 C13.175,1.053 13.932,1.778 13.926,2.838 C13.919,4.362 13.924,5.887 13.924,7.411" id="Fill-4303"></path></g></g><g id="Power-BI-Hex-Border" stroke="#F2C811" stroke-width="4"><path d="M45.5620172,3.25834249 L6.67338401,26.8942953 C3.79673288,28.6432593 2,31.9508238 2,35.5582677 L2,82.4417323 C2,86.0486597 3.79764663,89.3586805 6.67318764,91.1055853 L45.560618,114.742485 C46.9289662,115.572418 48.4546283,116 50,116 C51.5458817,116 53.0723633,115.572188 54.4362178,114.743457 L93.3268764,91.1055464 C96.2016145,89.3583456 98,86.0476286 98,82.4417323 L98,35.5582677 C98,31.9518547 96.202529,28.6435953 93.3268966,26.8944659 L54.4351916,3.25759524 C53.0721095,2.42798656 51.5462432,2 50,2 C48.4543284,2 46.9293388,2.42772325 45.5620146,3.25834407 Z M45.5620146,3.25834407 C45.5619597,3.25837737 45.5619049,3.25841067 45.5618501,3.25844398 L45.5621963,3.25823359 L45.5620172,3.25834249 Z" id="Azure-Hex-Border"></path></g></g></g></g></svg>

<svg xmlns="http://www.w3.org/2000/svg" viewBox="0 0 100 118"><defs><filter x="-1.6%" y="-1.9%" width="103.1%" height="107.4%" filterUnits="objectBoundingBox" id="a"><feOffset dy="2" in="SourceAlpha" result="shadowOffsetOuter1"/><feColorMatrix values="0 0 0 0 0 0 0 0 0 0 0 0 0 0 0 0 0 0 0.0968919837 0" in="shadowOffsetOuter1" result="shadowMatrixOuter1"/><feMerge><feMergeNode in="shadowMatrixOuter1"/><feMergeNode in="SourceGraphic"/></feMerge></filter></defs><g fill="none" fill-rule="evenodd"><path d="M44.742 3.497A10.056 10.056 0 0 1 50 2c1.813 0 3.627.499 5.256 1.497l37.335 22.835C95.933 28.377 98 32.203 98 36.352v45.295c0 4.148-2.067 7.977-5.409 10.021l-37.335 22.837A10.056 10.056 0 0 1 50 116c-1.813 0-3.626-.499-5.258-1.495L7.41 91.668C4.066 89.624 2 85.795 2 81.648V36.352c0-4.15 2.066-7.976 5.409-10.021L44.743 3.497z" fill="#7D7D7D"/><g filter="url(#a)" transform="translate(18 32)"><path d="M4 54c-2.2 0-4-1.8-4-4V4c0-2.2 1.8-4 4-4h56c2.2 0 4 1.8 4 4v46c0 2.2-1.8 4-4 4H4" fill="#30404D"/><path d="M5 51c-1.1 0-2-.9-2-2V11c0-1.1.9-2 2-2h54c1.1 0 2 .9 2 2v38c0 1.1-.9 2-2 2H5" fill="#F7CB64"/><path d="M4 4.5a1.5 1.5 0 1 1 3 0 1.5 1.5 0 0 1-3 0" fill="#DF5142"/><path d="M10 4.5a1.5 1.5 0 1 1 3 0 1.5 1.5 0 0 1-3 0" fill="#EFB252"/><path d="M16 4.5a1.5 1.5 0 1 1 3 0 1.5 1.5 0 0 1-3 0" fill="#7CB65A"/><path d="M59.5 6h-34a1.5 1.5 0 0 1 0-3h34a1.5 1.5 0 0 1 0 3" fill="#697D85"/><g fill="#FFF"><path d="M31.138 42.058c-.184-.103-.393-.083-.59-.11a10.959 10.959 0 0 1-3.405-1.055 11.234 11.234 0 0 1-2.201-1.409 10.723 10.723 0 0 1-1.99-2.162 11.43 11.43 0 0 1-1.676-3.594 11.106 11.106 0 0 1-.307-3.94c.177-1.835.788-3.515 1.797-5.05.7-1.068 1.58-1.97 2.602-2.738.696-.522 1.709-.47 2.32.055.84.723.87 2.086.022 2.806-.525.445-1.052.885-1.476 1.431-1.093 1.407-1.637 2.992-1.597 4.781a7.347 7.347 0 0 0 .9 3.373 7.205 7.205 0 0 0 2.164 2.47 7.48 7.48 0 0 0 3.038 1.302 7.226 7.226 0 0 0 4.174-.455 7.302 7.302 0 0 0 2.68-1.9c1.064-1.201 1.699-2.597 1.866-4.187a7.247 7.247 0 0 0-.766-4.15c-.543-1.056-1.33-1.89-2.237-2.64-.944-.781-.874-2.212.119-2.932.579-.422 1.507-.467 2.198.055 1.3.984 2.349 2.18 3.119 3.62a11.02 11.02 0 0 1 1.304 4.694 11 11 0 0 1-1.31 5.83 10.97 10.97 0 0 1-2.376 3.05 11.36 11.36 0 0 1-2.78 1.814 11.069 11.069 0 0 1-3.702.998c-.04.004-.095-.02-.114.042h-1.776z"/><path d="M33.924 24.411c0 1.486-.006 2.973.003 4.458.004.689-.237 1.245-.784 1.675-.463.364-1.323.464-1.845.186-.725-.383-1.094-.979-1.093-1.805.002-3.024.011-6.047-.004-9.071-.006-1.281 1.115-2.12 2.144-1.943.83.142 1.587.867 1.581 1.927-.007 1.524-.002 3.049-.002 4.573"/></g></g><path d="M45.562 3.258L6.673 26.894C3.797 28.644 2 31.951 2 35.558v46.884c0 3.607 1.798 6.917 4.673 8.664l38.888 23.636A8.539 8.539 0 0 0 50 116a8.525 8.525 0 0 0 4.436-1.257l38.89-23.637C96.203 89.358 98 86.048 98 82.442V35.558c0-3.606-1.797-6.914-4.673-8.664L54.435 3.258A8.511 8.511 0 0 0 50 2c-1.546 0-3.07.428-4.438 1.258zm0 0s0 0 0 0h0z" stroke="#F2C811" stroke-width="4"/></g></svg>
